images/icons/vk.svg

<svg width="75" height="75" viewBox="0 0 75 75" fill="none" xmlns="http://www.w3.org/2000/svg">
<path d="M37.5 0C16.7891 0 0 16.7891 0 37.5C0 58.2109 16.7891 75 37.5 75C58.2109 75 75 58.2109 75 37.5C75 16.7891 58.2109 0 37.5 0ZM51.9219 42.3086C51.9219 42.3086 55.2383 45.582 56.0547 47.1016C56.0781 47.1328 56.0898 47.1641 56.0977 47.1797C56.4297 47.7383 56.5078 48.1719 56.3438 48.4961C56.0703 49.0352 55.1328 49.3008 54.8125 49.3242H48.9531C48.5469 49.3242 47.6953 49.2187 46.6641 48.5078C45.8711 47.9531 45.0898 47.043 44.3281 46.1562C43.1914 44.8359 42.207 43.6953 41.2148 43.6953C41.0888 43.6951 40.9636 43.7149 40.8438 43.7539C40.0938 43.9961 39.1328 45.0664 39.1328 47.918C39.1328 48.8086 38.4297 49.3203 37.9336 49.3203H35.25C34.3359 49.3203 29.5742 49 25.3555 44.5508C20.1914 39.1016 15.543 28.1719 15.5039 28.0703C15.2109 27.3633 15.8164 26.9844 16.4766 26.9844H22.3945C23.1836 26.9844 23.4414 27.4648 23.6211 27.8906C23.832 28.3867 24.6055 30.3594 25.875 32.5781C27.9336 36.1953 29.1953 37.6641 30.207 37.6641C30.3967 37.6618 30.5831 37.6136 30.75 37.5234C32.0703 36.7891 31.8242 32.082 31.7656 31.1055C31.7656 30.9219 31.7617 29 31.0859 28.0781C30.6016 27.4102 29.7773 27.1562 29.2773 27.0625C29.4797 26.7832 29.7463 26.5568 30.0547 26.4023C30.9609 25.9492 32.5938 25.8828 34.2148 25.8828H35.1172C36.875 25.9062 37.3281 26.0195 37.9648 26.1797C39.2539 26.4883 39.2812 27.3203 39.168 30.168C39.1328 30.9766 39.0977 31.8906 39.0977 32.9688C39.0977 33.2031 39.0859 33.4531 39.0859 33.7187C39.0469 35.168 39 36.8125 40.0234 37.4883C40.1569 37.572 40.3112 37.6166 40.4688 37.6172C40.8242 37.6172 41.8945 37.6172 44.793 32.6445C45.6869 31.044 46.4636 29.3808 47.1172 27.668C47.1758 27.5664 47.3477 27.2539 47.5508 27.1328C47.7007 27.0564 47.8669 27.0175 48.0352 27.0195H54.9922C55.75 27.0195 56.2695 27.1328 56.3672 27.4258C56.5391 27.8906 56.3359 29.3086 53.1602 33.6094L51.7422 35.4805C48.8633 39.2539 48.8633 39.4453 51.9219 42.3086Z" fill="#034694"/>
</svg>

<svg xmlns="http://www.w3.org/2000/svg" fill="none" viewBox="0 0 75 75"><path fill="#034694" d="M37.5 0C16.79 0 0 16.79 0 37.5S16.79 75 37.5 75 75 58.21 75 37.5 58.21 0 37.5 0zm14.422 42.309s3.316 3.273 4.133 4.793c.023.03.035.062.043.078.332.558.41.992.246 1.316-.274.54-1.211.805-1.532.828h-5.859c-.406 0-1.258-.105-2.289-.816-.793-.555-1.574-1.465-2.336-2.352-1.137-1.32-2.121-2.46-3.113-2.46-.126 0-.251.019-.371.058-.75.242-1.711 1.312-1.711 4.164 0 .89-.703 1.402-1.2 1.402H35.25c-.914 0-5.676-.32-9.895-4.77-5.164-5.448-9.812-16.378-9.851-16.48-.293-.707.312-1.086.973-1.086h5.918c.789 0 1.046.48 1.226.907.211.496.985 2.468 2.254 4.687 2.059 3.617 3.32 5.086 4.332 5.086.19-.002.376-.05.543-.14 1.32-.735 1.074-5.442 1.016-6.419 0-.183-.004-2.105-.68-3.027-.484-.668-1.309-.922-1.809-1.015.203-.28.47-.506.778-.66.906-.454 2.539-.52 4.16-.52h.902c1.758.023 2.211.137 2.848.297 1.289.308 1.316 1.14 1.203 3.988-.035.809-.07 1.723-.07 2.8 0 .235-.012.485-.012.75-.04 1.45-.086 3.094.937 3.77a.844.844 0 0 0 .446.13c.355 0 1.425 0 4.324-4.974.894-1.6 1.67-3.263 2.324-4.976.059-.102.23-.414.434-.535a1.04 1.04 0 0 1 .484-.113h6.957c.758 0 1.278.113 1.375.406.172.465-.031 1.883-3.207 6.183l-1.418 1.871c-2.879 3.774-2.879 3.965.18 6.829z"/></svg>
